packages/design-assets/icons/24px/Engagement.svg

<?xml version="1.0" encoding="UTF-8"?>
<svg width="24px" height="24px" viewBox="0 0 24 24" version="1.1" xmlns="http://www.w3.org/2000/svg" xmlns:xlink="http://www.w3.org/1999/xlink">
    <!-- Generator: Sketch 54.1 (76490) - https://sketchapp.com -->
    <title>Icons/24px/Engagement</title>
    <desc>Created with Sketch.</desc>
    <g id="Icons/24px/Engagement" stroke="none" stroke-width="1" fill="none" fill-rule="evenodd">
        <path d="M8.36394482,15.9767472 L7.36410906,15.9767472 C6.81191452,15.9767472 6.36427331,16.4255165 6.36427331,16.9791025 L6.36427331,19.881242 C6.36427331,20.4311518 7.16965512,20.6574264 7.36610914,20.8967656 L8.88794732,21.9952292 L17.7199105,21.9935833 L18.929907,17.7143157 C19.1239411,16.449892 19.2021286,16.6018886 18.3971364,16.4513099 L13.2703686,15.9724346 C12.7563369,15.9244205 12.3632878,15.4919609 12.3632878,14.9744019 L12.3632878,9.96262522 C12.3632878,9.40903915 11.9156466,8.96026988 11.3634521,8.96026988 C10.8112575,8.96026988 10.3636163,9.40903915 10.3636163,9.96262522 L10.3636163,16.9791125 C10.3636163,17.5326981 9.91597461,17.9814679 9.36378057,17.9814679 C8.81158653,17.9814679 8.36394482,17.5326981 8.36394482,16.9791125 L8.36394482,15.9767472 L8.36394482,15.9767472 Z M14.2174938,14.0886977 L18.6176518,14.4930307 C20.7637208,14.8748735 21.2547836,15.8067262 20.8903025,18.1077947 L19.4575544,23.2217618 C19.3511043,23.6760165 18.9380833,23.9980636 18.4618468,23.9981502 L8.29320279,24 C8.07886822,24.000039 7.86994839,23.9341164 7.69600739,23.811561 L5.76817065,22.4532449 C5.69286475,22.4001859 4,20.8341174 4,19.8938487 L4,16.9988568 C4,15.3421898 5.37235783,13.9991968 7.06524815,13.9991968 L8.08699753,13.9991968 L8.08699753,9.99966004 C8.08699753,8.34299304 9.45935536,7 11.1522457,7 C12.845136,7 14.2174938,8.34299304 14.2174938,9.99966004 L14.2174938,14.0886977 Z M7.516849,10.6974985 C7.67430819,11.2281005 7.3728974,11.786206 6.84362917,11.9440619 C6.31436094,12.1019179 5.75765837,11.7997476 5.60019918,11.2691456 C5.43186471,10.7018964 5.34544653,10.1097395 5.34544653,9.50695857 C5.34544653,6.13835511 8.03659519,3.40184129 11.3634521,3.40184129 C14.690309,3.40184129 17.3814576,6.13835511 17.3814576,9.50695857 C17.3814576,10.1111397 17.2946364,10.7046435 17.1255331,11.273085 C16.967718,11.8035807 16.4108129,12.1053757 15.8816507,11.947163 C15.3524885,11.7889503 15.0514521,11.2306418 15.2092671,10.7001461 C15.3231934,10.3171823 15.3817861,9.9166466 15.3817861,9.50695857 C15.3817861,7.23920427 13.579515,5.40655196 11.3634521,5.40655196 C9.14738916,5.40655196 7.34511804,7.23920427 7.34511804,9.50695857 C7.34511804,9.91570166 7.40343968,10.3153347 7.516849,10.6974985 Z M4.31871737,11.6990368 C4.47744496,12.2292588 4.17736967,12.788087 3.64848045,12.9472146 C3.11959123,13.1063422 2.56216766,12.8055107 2.40344007,12.2752887 C2.13690828,11.3849519 2,10.4547127 2,9.50695857 C2,4.25956919 6.18895526,0 11.3634521,0 C16.5379489,0 20.7269042,4.25956919 20.7269042,9.50695857 C20.7269042,10.4557665 20.5896919,11.3870196 20.3225791,12.2782443 C20.1636795,12.8084145 19.6061584,13.1090642 19.0773208,12.9497642 C18.5484832,12.7904641 18.2485893,12.231538 18.4074889,11.7013678 C18.6186522,10.9968192 18.7272327,10.2598887 18.7272327,9.50695857 C18.7272327,5.36041835 15.4271549,2.00471066 11.3634521,2.00471066 C7.29974922,2.00471066 3.99967151,5.36041835 3.99967151,9.50695857 C3.99967151,10.2590537 4.10801193,10.9951852 4.31871737,11.6990368 Z" id="i-24-touch" fill="#818F99"></path>
    </g>
</svg>

<svg width="24" height="24" xmlns="http://www.w3.org/2000/svg"><path d="M8.364 15.977h-1c-.552 0-1 .449-1 1.002v2.902c0 .55.806.776 1.002 1.016l1.522 1.098 8.832-.001 1.21-4.28c.194-1.264.272-1.112-.533-1.263l-5.127-.479a1.001 1.001 0 0 1-.907-.998V9.963a1.001 1.001 0 0 0-2 0v7.016a1.001 1.001 0 0 1-2 0v-1.002zm5.853-1.888l4.4.404c2.147.382 2.638 1.314 2.273 3.615l-1.432 5.114c-.107.454-.52.776-.996.776L8.293 24c-.214 0-.423-.066-.597-.188l-1.928-1.359C5.693 22.4 4 20.834 4 19.893V17c0-1.657 1.372-3 3.065-3h1.022v-4C8.087 8.344 9.459 7 11.152 7c1.693 0 3.065 1.343 3.065 3v4.089zm-6.7-3.392a1 1 0 1 1-1.917.572 6.187 6.187 0 0 1-.255-1.762c0-3.369 2.692-6.105 6.018-6.105 3.327 0 6.018 2.736 6.018 6.105 0 .604-.086 1.198-.255 1.766a1 1 0 1 1-1.917-.573c.114-.383.173-.783.173-1.193 0-2.268-1.802-4.1-4.019-4.1-2.216 0-4.018 1.832-4.018 4.1 0 .409.058.808.172 1.19zM4.319 11.7a1 1 0 1 1-1.915.576A9.641 9.641 0 0 1 2 9.507C2 4.26 6.189 0 11.363 0c5.175 0 9.364 4.26 9.364 9.507a9.64 9.64 0 0 1-.404 2.771 1 1 0 1 1-1.916-.577c.212-.704.32-1.441.32-2.194 0-4.147-3.3-7.502-7.364-7.502C7.3 2.005 4 5.36 4 9.507c0 .752.108 1.488.319 2.192z" fill="#818F99" fill-rule="evenodd"/></svg>
